svg/fluentui-system-icons/ic_fluent_service_bell_20_regular.svg

<svg width="20" height="20" viewBox="0 0 20 20" fill="none" xmlns="http://www.w3.org/2000/svg">
<path d="M10.5 8.5C10.9218 8.5 11.3396 8.50365 11.7681 8.65794C12.1806 8.80641 12.6387 9.10948 13.084 9.77735C13.2372 10.0071 13.5476 10.0692 13.7774 9.91603C14.0071 9.76285 14.0692 9.45241 13.916 9.22265C13.3613 8.39052 12.7361 7.94359 12.1069 7.71706C11.5035 7.49986 10.9301 7.49994 10.5198 7.5L10.5 7.5C10.2239 7.5 10 7.72386 10 8C10 8.27614 10.2239 8.5 10.5 8.5ZM8 5V5.78988C5.10851 6.65043 3 9.32898 3 12.5C3 12.7761 3.22386 13 3.5 13H16.5C16.7761 13 17 12.7761 17 12.5C17 9.32898 14.8915 6.65043 12 5.78988V5C12 3.89543 11.1046 3 10 3C8.89543 3 8 3.89543 8 5ZM10 4C10.5523 4 11 4.44772 11 5V5.57089C10.6734 5.52417 10.3395 5.5 10 5.5C9.66048 5.5 9.3266 5.52417 9 5.57089V5C9 4.44772 9.44772 4 10 4ZM10 6.5C13.1453 6.5 15.7254 8.92023 15.9795 12H4.02054C4.27461 8.92023 6.85467 6.5 10 6.5ZM3.5 14C2.67157 14 2 14.6716 2 15.5C2 16.3284 2.67157 17 3.5 17H16.5C17.3284 17 18 16.3284 18 15.5C18 14.6716 17.3284 14 16.5 14H3.5ZM3 15.5C3 15.2239 3.22386 15 3.5 15H16.5C16.7761 15 17 15.2239 17 15.5C17 15.7761 16.7761 16 16.5 16H3.5C3.22386 16 3 15.7761 3 15.5Z" fill="#212121"/>
</svg>

<svg xmlns="http://www.w3.org/2000/svg" width="20" height="20"><path d="M10.5 8.5c.422 0 .84.004 1.268.158.413.148.87.451 1.316 1.12a.5.5 0 0 0 .832-.555c-.555-.832-1.18-1.28-1.81-1.506C11.505 7.5 10.93 7.5 10.52 7.5h-.02a.5.5 0 0 0 0 1ZM8 5v.79c-2.891.86-5 3.539-5 6.71a.5.5 0 0 0 .5.5h13a.5.5 0 0 0 .5-.5 7.003 7.003 0 0 0-5-6.71V5a2 2 0 1 0-4 0Zm2-1a1 1 0 0 1 1 1v.57a7.06 7.06 0 0 0-2 0V5a1 1 0 0 1 1-1Zm0 2.5a6 6 0 0 1 5.98 5.5H4.02A6 6 0 0 1 10 6.5ZM3.5 14a1.5 1.5 0 0 0 0 3h13a1.5 1.5 0 0 0 0-3h-13ZM3 15.5a.5.5 0 0 1 .5-.5h13a.5.5 0 0 1 0 1h-13a.5.5 0 0 1-.5-.5Z"/></svg>
